X:1
T:Miss Isaac Forsyth, Elgin
T:Miss Isaac Forsyth, Elgin
T:William Marshall
C:William Marshall
%%score { ( 1 2 ) ( 3 4 ) }
L:1/8
M:6/8
K:F
V:1 treble 
V:2 treble 
V:3 bass 
V:4 bass 
V:1
 C | F2 B (A/B/c)!wedge!A | F2 f fed | c2 d cAF | EG[DG] [CEG]2 A | F2 B (A/B/c)!wedge!A | %6
 F2 f fed | c2 d cAF | CFF F2 :| f/g/ | agf bag | agf gfe | fed cBA | BGG G2 f/g/ | agf bag | %15
 agf gfe | def cdB | AFF F2 f/g/ | agf bag | agf gfe | def cBA | BGG G2 f/g/ | %22
 F2 B (A/B/c)!wedge!A | F2 f fed | c2 f efg | aff f2 |] %26
V:2
 x | x6 | x6 | x6 | x6 | x6 | x6 | x6 | A,2 [B,D] [A,C]2 :| x | x6 | x6 | x6 | x6 | x6 | x6 | x6 | %17
 x6 | x6 | x6 | x6 | x6 | x6 | x6 | x6 | x5 |] %26
V:3
 z | a2 d' c'2 c' | a2 d' d'c'b' | a2 b' a2 a | c'2 =b _b3 | [ac']2 d' c'2 c' | a2 d' d'c'b | %7
 a2 b a2 a | [Ff]2 [Ff] [Ff]2 :| z | fac' egc' | fac' fac' | fbd' fac' | cgc' cgc' | fac' egc' | %15
 fac' fbd' | fbd' egc' | z2 [bd'] [ac']2 z | fac' egc' | fac' fac' | fbd' fac' | cgc' ebc' | %22
 a2 d' c'2 c' | a2 d' d'c'b | a2 a fab | a2 [bd'] [ac']2 |] %26
V:4
 x | F,3 F,3 | F,3 F,3 | F,3 F,3 | C,6 | F,3 F,2 F, | F,3 F,3 | F,3 F,2 F, | x5 :| x | x6 | x6 | %12
 x6 | x6 | x6 | x6 | x6 | F,3 F,3 | x6 | x6 | x6 | x6 | F,3 F,2 F, | F,3 F,2 F, | F,2 F, C,3 | %25
 F,3- F,2 |] %26

